src/assets/skills/semantic-ui.svg

<svg height="100pt" viewBox="0 0 100 100" width="100pt" xmlns="http://www.w3.org/2000/svg"><path d="m0 0h100v100h-100z" fill="#34bdb2"/><path d="m64.021 36.246c-4.661-2.705-8.799-4.831-14.212-4.738-3.097.054-5.756 1.737-6.315 4.818-.52 2.866 2.027 4.456 4.678 5.432 4.396 1.619 8.223 3.328 12.542 5.128 7.853 3.272 11.879 8.572 11.403 15.372-.605 8.651-5.812 14.856-14.087 16.902-10.813 2.673-21.313-1.399-30.185-7.083 2.239-3.412 4.837-5.74 7.063-9.13 5.125 2.181 9.152 5.129 14.514 5.589 3.781.324 8.065.144 8.914-4.297.766-4.005-2.72-6.152-6.119-7.351-4.047-1.427-8.086-3.173-12.055-4.794-7.336-2.997-10.322-8.857-9.819-15.762 0-4.048 3.359-12.231 11.595-14.776 12.653-3.911 19.625.094 28.801 5.991-2.437 3.223-4.311 5.514-6.718 8.699" fill="#fff"/></svg>

<?xml version="1.0" encoding="UTF-8" standalone="no"?><!-- Generator: Gravit.io --><svg xmlns="http://www.w3.org/2000/svg" xmlns:xlink="http://www.w3.org/1999/xlink" style="isolation:isolate" viewBox="0 0 100 100" width="100pt" height="100pt"><g><path d=" M 0 0 L 100 0 L 100 100 L 0 100 L 0 0 Z " fill="rgb(52,189,178)"/><path d=" M 64.021 36.246 C 59.36 33.541 55.222 31.415 49.809 31.508 C 46.712 31.562 44.053 33.245 43.494 36.326 C 42.974 39.192 45.521 40.782 48.172 41.758 C 52.568 43.377 56.395 45.086 60.714 46.886 C 68.567 50.158 72.593 55.458 72.117 62.258 C 71.512 70.909 66.305 77.114 58.03 79.16 C 47.217 81.833 36.717 77.761 27.845 72.077 C 30.084 68.665 32.682 66.337 34.908 62.947 C 40.033 65.128 44.06 68.076 49.422 68.536 C 53.203 68.86 57.487 68.68 58.336 64.239 C 59.102 60.234 55.616 58.087 52.217 56.888 C 48.17 55.461 44.131 53.715 40.162 52.094 C 32.826 49.097 29.84 43.237 30.343 36.332 C 30.343 32.284 33.702 24.101 41.938 21.556 C 54.591 17.645 61.563 21.65 70.739 27.547 C 68.302 30.77 66.428 33.061 64.021 36.246" fill="rgb(255,255,255)"/></g></svg>
